icons/editor-scissors-2-filled.svg

<svg width="25" height="24" viewBox="0 0 25 24" fill="none" xmlns="http://www.w3.org/2000/svg">
<g id="scissors-02" clip-path="url(#clip0_37775_412991)">
<path id="Icon" d="M3.84922 9.39554L20.6492 16.8004M20.6492 7.20039L3.84922 14.6052M17.6496 12.0007L17.6261 12.0242M22.473 12.0007L22.4495 12.0242M5.04922 9.60039C3.06099 9.60039 1.44922 7.98861 1.44922 6.00039C1.44922 4.01216 3.06099 2.40039 5.04922 2.40039C7.03744 2.40039 8.64922 4.01217 8.64922 6.00039C8.64922 7.98862 7.03744 9.60039 5.04922 9.60039ZM5.04922 21.6004C3.06099 21.6004 1.44922 19.9886 1.44922 18.0004C1.44922 16.0122 3.06099 14.4004 5.04922 14.4004C7.03744 14.4004 8.64922 16.0122 8.64922 18.0004C8.64922 19.9886 7.03744 21.6004 5.04922 21.6004Z" stroke="black" stroke-width="2" stroke-linecap="round" stroke-linejoin="round"/>
</g>
<defs>
<clipPath id="clip0_37775_412991">
<rect width="24" height="24" fill="white" transform="translate(24.25) rotate(90)"/>
</clipPath>
</defs>
</svg>

<svg xmlns="http://www.w3.org/2000/svg" width="25" height="24" fill="none" viewBox="0 0 25 24"><g clip-path="url(#a)"><path stroke="currentColor" stroke-linecap="round" stroke-linejoin="round" stroke-width="2" d="m3.85 9.396 16.8 7.404m0-9.6-16.8 7.405m13.8-2.604-.024.023m4.847-.023-.023.023M5.05 9.6a3.6 3.6 0 1 1 0-7.2 3.6 3.6 0 0 1 0 7.2m0 12a3.6 3.6 0 1 1 0-7.2 3.6 3.6 0 0 1 0 7.2"/></g><defs><clipPath id="a"><path fill="#fff" d="M24.25 0v24h-24V0z"/></clipPath></defs></svg>
